X:1
T:Title
%%score { ( 1 4 ) | ( 2 3 ) }
L:1/8
M:4/4
K:Db
V:1 treble nm="Grand Piano"
V:4 treble 
V:2 bass 
V:3 bass 
V:1
 z4 z2[Q:1/4=100] DE | F2 FG A2 FA | GF [CE]2 [DF]2 [FA][FA] | Bd[CAc][GB] [DFA]2 [A,DF]2 | %4
 [A,CA]6 [A,GA][A,GA] | [Fd]2 [Gd][Gd] [Fd]2 [Ac][GB] | [FA]2 F2 A2 AA | %7
 A2 [EAc][FAd] [EAc]2 [D=GB]2 |[M:3/4] [CEA]6 |[M:1/4] [CGA]>[CGA] |[M:4/4] d6 z2 | %11
[M:5/8] A2 G2 z |[M:3/8] [EG][=DF][EG] |[M:4/4] c6 z2 | [GB]2 [FA]2 z [FA][FA][FA] | f6 z2 | %16
 [Ge]2 [GB]2 z [Bd][Ac]B | z z/ F/ Fd f2 e2 |[M:3/4] d2- [_Fd-]2 [=Fd]2 |] %19
V:2
 z4 z2 D,E, | F,2 F,G, A,2 [D,A,D][F,A,D] | [G,B,E][A,D] [A,,A,]2 [D,A,]2 [D,D][D,D] | .D2 G,2 z4 | %4
 A,,6 C,C, | [D,A,]2 [D,B,][D,B,] [D,A,]2 [D,B,][D,C] | [D,D]2 [D,A,D]2 [D,F,D]2 [F,A,D][F,A,D] | %7
 [E,A,C]2 E,E, E,2 E,2 |[M:3/4] A,,6 |[M:1/4] A,>A, | %10
[M:4/4] [D,A,][A,,A,][B,,A,][C,A,] [D,A,][D,A,][D,A,][D,A,D] |[M:5/8] [E,A,C]2 [E,A,C]2 z | %12
[M:3/8] [A,,A,][A,,A,][A,,A,] |[M:4/4] [A,,A,][A,,A,][C,A,][E,A,] [A,,A,][A,,A,]A,,A,, | %14
 [D,D]2 [D,D]2 z [D,D][D,D][D,D] | [D,D][D,D][F,D][A,D] [D,D][D,D][E,D][F,_C] | %16
 [G,B,]2 [G,D]2 z [G,B,][G,C][K:treble][G,DG] | [A,DF]>[A,D] [A,D][A,DF] [A,DA]2[K:bass] [A,,CG]2 | %18
[M:3/4] [D,A,]2 [D,=G,]2 [D,A,]2 |] %19
V:3
 x8 | x8 | x8 | [G,G]-[G,B,G] z D D,2 D,2 | x8 | x8 | x8 | x8 |[M:3/4] x6 |[M:1/4] x2 |[M:4/4] x8 | %11
[M:5/8] x5 |[M:3/8] x3 |[M:4/4] x8 | x8 | x8 | x7[K:treble] x | x6[K:bass] x2 |[M:3/4] x6 |] %19
V:4
 x8 | x8 | x8 | x8 | x8 | x8 | x8 | x8 |[M:3/4] x6 |[M:1/4] x2 |[M:4/4] FFFF F[Fc][FB]F | %11
[M:5/8] x5 |[M:3/8] x3 |[M:4/4] EEEE E[GB][B,FA][CEG] | x8 | AAAA A[Af][Ge][Ad] | x8 | A4 z4 | %18
[M:3/4] F2 z2 z2 |] %19

